!!!COM: Buxtehude, Dietrich
!!!CDT: ~1637///-1707/05/09/
!!!ODT: ~1694///
!!!OTL: Sonata in F Major, Op. 1, No. 1
!!!OPS: Op. 1
!!!ONM: No. 1
!!!SCA: BuxWV 252
!!!OMD: 4. Andante
!!!URL: http://www.lysator.liu.se/~tuben/scores
!!!ONB: Johan Tufvessons, ed.
!!!SMA: facsmile of the original edition at Uppsala University
**kern	**kern	**kern
*staff3	*staff2	*staff1
*Icemba	*Iviola	*Ivioln
*clefF4	*clefC3	*clefG2
*k[b-]	*k[b-]	*k[b-]
*M6/8	*M6/8	*M6/8
*MM84	*MM84	*MM84
=86-	=86-	=86-
8F\L	2.r	2.r
16F\L	.	.
16E\J	.	.
8D\J	.	.
8C/L	.	.
16C/L	.	.
16BB-/J	.	.
8AA/J	.	.
=87	=87	=87
8BB-/L	2.r	8r
16AA/L	.	8r
16GG/J	.	.
8FF/J	.	(16cc\LL
.	.	16dd\JJ)
8C/L	.	4.cc\
16C/L	.	.
16D/J	.	.
8E/J	.	.
=88	=88	=88
8F\L	2.r	8r
16A\L	.	8r
16G\J	.	.
8F\J	.	(16cc\LL
.	.	16dd\JJ)
8c\L	.	[4cc\
16C\L	.	.
16BB-\J	.	.
8AA\J	.	16cc\LL]
.	.	16cc\JJ
=89	=89	=89
8BB-/	2.r	8dd\L
4C/	.	8.g\
.	.	16b-\Jk
8FF\L	.	4.a/
16F\L	.	.
16G\	.	.
16F\	.	.
16E\JJ	.	.
=90	=90	=90
8F\L	2.r	16r
.	.	16cc\LL
16F\L	.	16dd\
16E\J	.	16ee\
8D\J	.	16ff\
.	.	16bn\JJ
8C/L	.	16ee/LL
.	.	16g/
16C/L	.	16a/
16BB-/J	.	16b-/
8AA/J	.	16cc/
.	.	16f/JJ
=91	=91	=91
8BB-/L	2.r	16dd\LL
.	.	16ee\
16AA/L	.	16ff\
16GG/J	.	16gg\
8FF/J	.	16aa\
.	.	16dd\JJ
8C/L	.	16ee\LL
.	.	16cc\
16C/L	.	16ee\
16D/J	.	16ff\
8E/J	.	16gg\
.	.	16g\JJ
=92	=92	=92
8F\L	2.r	16r
.	.	16a\LL
16A\L	.	16cc\
16G\J	.	16b-\
8F\J	.	16a\
.	.	16ff\JJ
8c\L	.	16ee\LL
.	.	16gg\
16C\L	.	16aa\
16BB-\J	.	16gg\
8AA\J	.	16ff\
.	.	16ee\JJ
=93	=93	=93
8BB-/	2.r	16dd\LL
.	.	16ff\
4C/	.	16a\
.	.	16ff\
.	.	16g\
.	.	16ee\JJ
8FF\L	.	16ff/LL
.	.	16a/
16F\L	.	16a/
16G\	.	16b-/
16F\	.	16a/
16E\JJ	.	16g/JJ
=94	=94	=94
8F\L	2.r	16a\LL
.	.	16cc\
16F\L	.	16dd\
16E\J	.	16cc\
8D\J	.	16bn\
.	.	16ff\JJ
8C/L	.	16ee\LL
.	.	16gg\
16C/L	.	16aa\
16BB-/J	.	16gg\
8AA/J	.	16ccc\
.	.	16cc\JJ
=95	=95	=95
8BB-/L	2.r	16dd\LL
.	.	16gg\
16AA/L	.	16ff\
16GG/J	.	16ee\
8FF/J	.	16aa\
.	.	16dd\JJ
8C/L	.	16ee\LL
.	.	16gg\
16C/L	.	16ee\
16D/J	.	16ff\
8E/J	.	16gg\
.	.	16cc\JJ
=96	=96	=96
8F\L	2.r	16aa\LL
.	.	(16cc\
16A\L	.	16cc\
16G\J	.	16cc\
8F\J	.	16cc\
.	.	16cc\JJ)
8c\L	.	16cc\LL
.	.	(16cc\
16C\L	.	16cc\
16BB-\J	.	16cc\
8AA\J	.	16cc\
.	.	16cc\JJ)
=97	=97	=97
8BB-/	2.r	16dd\LL
.	.	(16b-\
4C/	.	16b-\
.	.	16b-\
.	.	16b-\
.	.	16b-\JJ)
8FF\L	.	16a\LL
.	.	(16aa\
16F\L	.	16aa\
16G\	.	16aa\
16F\	.	16aa\
16E\JJ	.	16aa\JJ)
=98	=98	=98
8F\L	2.r	16aa\LL
.	.	16bb-\
16F\L	.	16aa\
16E\J	.	16gg\
8D\J	.	16aa\
.	.	16bbn\JJ
8C/L	.	16ccc\LL
.	.	16ee\
16C/L	.	16ff\
16BB-/J	.	16gg\
8AA/J	.	16ff\
.	.	16ee-\JJ
=99	=99	=99
8BB-/L	8r	16dd\LL
.	.	16ee-\
16AA/L	8r	16cc\
16GG/J	.	16b-\
8FF/J	(16c\LL	16a\
.	16d\JJ)	16ff\JJ
8C/L	4.c\	16ee-\LL
.	.	16ccc\
16C/L	.	16bb-\
16D/J	.	16aa\
8E/J	.	16gg\
.	.	16bb-\JJ
=100	=100	=100
8F\L	8r	8aa\L
16A\L	8r	16ccc\L
16G\J	.	16bb-\J
8F\J	(16c\LL	8aa\J
.	16d\JJ)	.
8c\L	[4c\	8r
16C\L	.	16ee\LL
16BB-\J	.	16gg\J
8AA\J	16c\LL]	[8ff\J
.	16c\JJ	.
=101	=101	=101
8BB-/	8d/L	8ff\L]
4C/	8.G/	8.ff\
.	16B-/Jk	16ee\Jk
8FF\L	4.A/	8ff\L
16F\L	.	8.cc\
16G\	.	.
16F\	.	.
16E\JJ	.	16cc\Jk
=102	=102	=102
8F\L	16r	16cc\LL
.	16c\LL	16a\
16F\L	16d\	16bn\
16E\J	16e\	16cc\J
8D\J	16f\	8dd\J
.	16Bn\JJ	.
8C/L	16e/LL	16r
.	16G/	16ee\LL
16C/L	16A/	16ff\
16BB-/J	16B-/	16gg\J
8AA/J	16c/	8aa\J
.	16F/JJ	.
=103	=103	=103
8BB-/L	16d\LL	16r
.	16e\	16cc\LL
16AA/L	16f\	16dd\
16GG/J	16g\	16ee\J
8FF/J	16a\	8ff\J
.	16d\JJ	.
8C/L	16e\LL	16r
.	16c\	16ee\LL
16C/L	16e\	16a\
16D/J	16f\	16bn\J
8E/J	16g\	8cc\J
.	16G\JJ	.
=104	=104	=104
8F\L	16r	8c/
.	16A/LL	.
16A\L	16c/	8r
16G\J	16B-/	.
8F\J	16A/	8r
.	16f/JJ	.
8c\L	16e\LL	8r
.	16g\	.
16C\L	16a\	8r
16BB-\J	16g\	.
8AA\J	16f\	8cc\
.	16e\JJ	.
=105	=105	=105
8BB-/	16d\LL	16f\LL
.	16f\	16dd\
4C/	16A\	16cc\
.	16f\JJ	16dd\
.	16G/LL	16b-\
.	16e/JJ	16cc\JJ
16FF/LL	16f/LL	16a/LL
16GG/	16B-/	16g/
16AA/	16c/	16f/
16BB-/J	16d/	16g/
8C/J	16c/	16e/
.	16C/JJ	16ee/JJ
=106	=106	=106
8F\L	8F\L	16a\LL
.	.	16ff\
16F\L	16a\L	16dd\
16E\J	16g\	16cc\
8D\J	16f\	16cc\
.	16g\JJ	16bn\JJ
8C/L	16e\LL	16cc\LL
.	16g\	16ee\
16C/L	16a\	16ff\
16BB-/J	16b-\	16gg\
8AA/J	16cc\	16aa\
.	16c\JJ	16gg\JJ
=107	=107	=107
8BB-/L	16d\LL	16ff\LL
.	16c\	16ee\
16AA/L	16d\	16ff\
16GG/J	16e\	16gg\
8FF/J	16f\	16aa\
.	16g\JJ	16bb-\JJ
8C/L	16e\LL	16gg\LL
.	16d\	16g\
16C/L	16e\	16a\
16D/J	16f\J	16b-\
8E/J	8g\J	16cc\
.	.	16b-\JJ
=108	=108	=108
8F\L	8c/L	8a/L
16A\L	16A/L	16cc/L
16G\J	16G/J	16b-/J
8F\J	8F/J	8a/J
8c\L	16c/LL	16r
.	16E/	16g/LL
16C\L	16F/	16a/
16BB-\J	16G/	16b-/
8AA\J	16A/	16cc/
.	16c/JJ	16f/JJ
=109	=109	=109
8BB-/	16B-/LL	16g/LL
.	16A/	16f/J
4C/	16G/	8.f/
.	16A/	.
.	16B-/	.
.	16c/JJ	16e/Jk
8FF\L	16A\LL	4f/
.	16c\	.
16F\L	16d\	.
16G\	16e\	.
16F\	16f\	8r
16E\JJ	16g\JJ	.
=110	=110	=110
8F\L	16a\LL	16r
.	16A\	16cc\LL
16F\L	16Bn\	16dd\
16E\J	16c\	16ee\
8D\J	16d\	16ff\
.	16Bn\JJ	16dd\JJ
8C/L	4c\	16ee\LL
.	.	16gg\
16C/L	.	16aa\
16BB-/J	.	16bb-\
8AA/J	8r	16ccc\
.	.	16cc\JJ
=111	=111	=111
8BB-/L	16r	16dd\LL
.	16d/LL	16gg\
16AA/L	16c/	16ff\
16GG/J	16B-/	16ee\
8FF/J	16A/	16ff\
.	16B-/JJ	16gg\JJ
8C/L	8G/L	8.ee\L
16C/L	16E/L	.
16D/J	16F/J	16dd\k
8E/J	8G/J	8cc\J
=112	=112	=112
8F\L	8A/L	16cc\LL
.	.	(16dd\J
16A\L	16c/L	8.cc\
16G\J	16B-/	.
8F\J	16A/	.
.	16f/JJ	16cc\Jk)
8c\L	8e\L	(16cc\LL
.	.	16dd\J
16C\L	16f\L	8.cc\)
16BB-\J	16g\J	.
8AA\J	8a\J	.
.	.	16cc\Jk
=113	=113	=113
8BB-/	16g\LL	8dd\L
.	16f\J	.
4C/	8.f\	8.g\
.	16e\Jk	16b-\Jk
8FF\L	8f\L	8a/L
16F\L	16f\L	16a/L
16G\	16e\	16g/
16F\	16f\	16a/
16E\JJ	16g\JJ	16b-/JJ
=114	=114	=114
8F\L	16f\LL	4a/
.	16c\	.
16F\L	16d\	.
16E\J	16e\	.
8D\J	16f\	8r
.	16g\JJ	.
8C/L	8e\L	16cc\LL
.	.	16g\
16C/L	16f\L	16a\
16BB-/J	16g\J	16b-\
8AA/J	8a\J	16cc\
.	.	16dd\JJ
=115	=115	=115
8BB-/L	8.d\L	16f/LL
.	.	16dd/
16AA/L	.	16cc/
16GG/J	16e\k	16b-/
8FF/J	8f\J	16a/
.	.	16b-/JJ
8C/L	8e\L	8g/L
16C/L	16e\L	8.cc/
16D/J	16f\J	.
8E/J	[8g\J	.
.	.	16b-/Jk
=116	=116	=116
8F\L	8g\L]	4.a/
16A\L	16f\L	.
16G\J	16e\J	.
8F\J	[8f\J	.
8c\L	16f\LL]	16r
.	16e\	16g\LL
16C\L	16f\	16a\
16BB-\J	16g\	16b-\
8AA\J	16a\	16cc\
.	16b-\JJ	16dd\JJ
=117	=117	=117
8BB-/	16g\LL	16b-/LL
.	16f\	16a/
4C/	16e\	16g/
.	16g\	16b-/
.	16f\	16a/
.	16e\JJ	16g/JJ
8FF\L	8f\	8a/
16F\L	8r	8r
16G\	.	.
16F\	8r	8r
16E\JJ	.	.
=118	=118	=118
8F\L	8f\	8a/
16F\L	8r	8r
16E\J	.	.
8D\J	8r	8r
8C/L	8r	8r
16C/L	16f\LL	16a\LL
16BB-/J	16g\J	16b-\J
8AA/J	8a\J	8cc\J
=119	=119	=119
8BB-/L	8.d\L	16r
.	.	16dd\LL
16AA/L	.	16cc\
16GG/J	16e\k	16b-\J
8FF/J	[8f\J	[8a\J
8C/L	8f\L]	8a/L]
16C/L	16e\L	16g/L
16D/J	16d\	16f/J
8E/J	16c\	8g/J
.	16B-\JJ	.
=120	=120	=120
8F\L	16A/LL	8r
.	16B-/	.
16A\L	16A/	8r
16G\J	16G/	.
8F\J	16F/	8a/
.	16f/JJ	.
8c\L	8e\	8g/
16C\L	8r	8r
16BB-\J	.	.
8AA\J	[8a\	8cc\
=121	=121	=121
8BB-/	8a\]	8cc\
4C/	4g\	4b-\
8FF\L	8f\	8a\L
*	*clefF4	*
16F\L	16F\LL	16aa\L
16G\	16G\	16bb-\
16F\	16F\	16aa\
16E\JJ	16E\JJ	16gg\JJ
=122	=122	=122
8F\L	16F\LL	16aa\LL
.	16G\	16bb-\
16F\L	16F\	16aa\
16E\J	16E\	16gg\
8D\J	16D\	16ff\
.	16E\JJ	16gg\JJ
8C/L	16C/LL	4ee\
.	16D/	.
16C/L	16C/	.
16BB-/J	16BB-/	.
8AA/J	16AA/	8ff\
.	16C/JJ	.
=123	=123	=123
8BB-/L	16BB-/LL	8.dd\L
.	16C/	.
16AA/L	16AA/	.
16GG/J	16GG/	16ee\k
8FF/J	16AA/	8ff\J
.	16FF/JJ	.
8C/L	16C/LL	8.ee\L
.	16BBn/	.
16C/L	16C/	.
16D/J	16D/	16dd\k
8E/J	16E/	8cc\J
.	16C/JJ	.
=124	=124	=124
8F\L	16F\LL	[4.cc\
.	16G\	.
16A\L	16A\	.
16G\J	16G\	.
8F\J	16A\	.
.	16F\JJ	.
8c\L	8c\L	8.cc\L]
16C\L	16C\L	.
16BB-\J	16BB-\J	16dd\k
8AA\J	8AA\J	8cc\J
=125	=125	=125
8BB-/	8BB-/	8dd\
4C/	4C/	4g/
4.FF;/	4.FF;/	4.f;/
==	==	==
*-	*-	*-
!!!ENC: Craig Stuart Sapp
!!!END: 2004/12/15/
